X: 10416
T: Donald McLennan's Exercise
R: slip jig
M: 9/8
K: Edorian
|:dff fef fBB|dff cee ecA|dff fef fBB|gee fdd ecA:|
|:dff aff aff|dff afd cee|dff aff aff|gfe fed cee:|
|:dag fag fBc|dag fdf eAc|dag fag fBc|dad caf eAc:|
|:dfe efe fBc|dfd caf eAc|dfe efe fBc|dad caf eAc:|
|:dfa fda ~f3|dfa fda fee|dfa fda ~f3|geg fdf ~e3:|
|:dfd ede ~f3|dfd edf e3|dfd ede fef|geg ~f3 ~e3:|

